client/src/assets/images/icon-medication-distribution-blue.svg

<svg fill="none" height="44" viewBox="0 0 55 44" width="55" xmlns="http://www.w3.org/2000/svg"><path d="m17.907 0c-1.7605 0-3.1977 1.43723-3.1977 3.19767v3.19768h-11.51163c-1.76044 0-3.19767 1.43722-3.19767 3.19767v30.69768c0 1.7604 1.43723 3.1977 3.19767 3.1977h48.60463c1.7605 0 3.1977-1.4373 3.1977-3.1977v-30.69768c0-1.76045-1.4372-3.19767-3.1977-3.19767h-11.5116v-3.19768c0-1.76044-1.4372-3.19767-3.1977-3.19767zm0 1.27907h19.186c1.074 0 1.9186.84463 1.9186 1.9186v3.19768h-23.0232v-3.19768c0-1.07397.8446-1.9186 1.9186-1.9186zm-14.70933 6.39535h48.60463c1.074 0 1.9186.84463 1.9186 1.9186v30.69768c0 1.074-.8446 1.9186-1.9186 1.9186h-48.60463c-1.07396 0-1.9186-.8446-1.9186-1.9186v-30.69768c0-1.07397.84464-1.9186 1.9186-1.9186zm24.30233 5.11628c-2.4691 0-4.4767 2.0077-4.4767 4.4767v3.1977h-3.1977c-2.4691 0-4.4768 2.0077-4.4768 4.4768 0 2.469 2.0077 4.4767 4.4768 4.4767h3.1977v3.1977c0 2.469 2.0076 4.4767 4.4767 4.4767s4.4767-2.0077 4.4767-4.4767v-3.1977h3.1977c2.4691 0 4.4768-2.0077 4.4768-4.4767 0-2.4691-2.0077-4.4768-4.4768-4.4768h-3.1977v-3.1977c0-2.469-2.0076-4.4767-4.4767-4.4767zm0 1.2791c1.7826 0 3.1977 1.4151 3.1977 3.1976v3.8372c0 .1697.0674.3323.1873.4523.1199.1199.2826.1873.4522.1873h3.8372c1.7826 0 3.1977 1.4151 3.1977 3.1977 0 1.7825-1.4151 3.1976-3.1977 3.1976h-3.8372c-.1696 0-.3323.0674-.4522.1874-.1199.1199-.1873.2826-.1873.4522v3.8372c0 1.7826-1.4151 3.1976-3.1977 3.1976s-3.1977-1.415-3.1977-3.1976v-3.8372c0-.1696-.0674-.3323-.1873-.4522-.1199-.12-.2826-.1874-.4522-.1874h-3.8372c-1.7826 0-3.1977-1.4151-3.1977-3.1976 0-1.7826 1.4151-3.1977 3.1977-3.1977h3.8372c.1696 0 .3323-.0674.4522-.1873.1199-.12.1873-.2826.1873-.4523v-3.8372c0-1.7825 1.4151-3.1976 3.1977-3.1976z" fill="#06b9ff"/></svg>

<svg width="55" height="44" viewBox="0 0 55 44" fill="none" xmlns="http://www.w3.org/2000/svg">
<path d="M17.907 0C16.1465 0 14.7093 1.43723 14.7093 3.19767V6.39535H3.19767C1.43723 6.39535 0 7.83257 0 9.59302V40.2907C0 42.0511 1.43723 43.4884 3.19767 43.4884H51.8023C53.5628 43.4884 55 42.0511 55 40.2907V9.59302C55 7.83257 53.5628 6.39535 51.8023 6.39535H40.2907V3.19767C40.2907 1.43723 38.8535 0 37.093 0H17.907ZM17.907 1.27907H37.093C38.167 1.27907 39.0116 2.1237 39.0116 3.19767V6.39535H15.9884V3.19767C15.9884 2.1237 16.833 1.27907 17.907 1.27907ZM3.19767 7.67442H51.8023C52.8763 7.67442 53.7209 8.51905 53.7209 9.59302V40.2907C53.7209 41.3647 52.8763 42.2093 51.8023 42.2093H3.19767C2.12371 42.2093 1.27907 41.3647 1.27907 40.2907V9.59302C1.27907 8.51905 2.12371 7.67442 3.19767 7.67442ZM27.5 12.7907C25.0309 12.7907 23.0233 14.7984 23.0233 17.2674V20.4651H19.8256C17.3565 20.4651 15.3488 22.4728 15.3488 24.9419C15.3488 27.4109 17.3565 29.4186 19.8256 29.4186H23.0233V32.6163C23.0233 35.0853 25.0309 37.093 27.5 37.093C29.9691 37.093 31.9767 35.0853 31.9767 32.6163V29.4186H35.1744C37.6435 29.4186 39.6512 27.4109 39.6512 24.9419C39.6512 22.4728 37.6435 20.4651 35.1744 20.4651H31.9767V17.2674C31.9767 14.7984 29.9691 12.7907 27.5 12.7907ZM27.5 14.0698C29.2826 14.0698 30.6977 15.4849 30.6977 17.2674V21.1046C30.6977 21.2743 30.7651 21.4369 30.885 21.5569C31.0049 21.6768 31.1676 21.7442 31.3372 21.7442H35.1744C36.957 21.7442 38.3721 23.1593 38.3721 24.9419C38.3721 26.7244 36.957 28.1395 35.1744 28.1395H31.3372C31.1676 28.1395 31.0049 28.2069 30.885 28.3269C30.7651 28.4468 30.6977 28.6095 30.6977 28.7791V32.6163C30.6977 34.3989 29.2826 35.8139 27.5 35.8139C25.7174 35.8139 24.3023 34.3989 24.3023 32.6163V28.7791C24.3023 28.6095 24.2349 28.4468 24.115 28.3269C23.9951 28.2069 23.8324 28.1395 23.6628 28.1395H19.8256C18.043 28.1395 16.6279 26.7244 16.6279 24.9419C16.6279 23.1593 18.043 21.7442 19.8256 21.7442H23.6628C23.8324 21.7442 23.9951 21.6768 24.115 21.5569C24.2349 21.4369 24.3023 21.2743 24.3023 21.1046V17.2674C24.3023 15.4849 25.7174 14.0698 27.5 14.0698Z" fill="#06B9FF"/>
</svg>
